X: 71
T:Polka (Antwerp)
M:2/4
L:1/8
R:Polka
Z:Steve Mansfield
K:Am
Ae ed/e/ | f>e d/c/B/c/ | dd ed | c/B/A/B/ cB | Ae ed/e/ |
f>e d/c/B/c/ | dd ed | c/B/A/B/ A2 :: AA Bc/B/ | AA B>c | dd ed |
c/B/A/B/ cB | AA Bc/B/ | AA B>c | dd ed | c/B/A/B/ A2 :|

